X:1
T:Progrès
T:Progrès
T:Fortschritt * Progress
T:Johann Friedrich Franz Burgmüller (1806-1874) Opus 100. 
T:25 Etudes faciles
T:public domain - Mutopia-2013/01/12-215
C:Johann Friedrich Franz Burgmüller (1806-1874)
Z:public domain - Mutopia-2013/01/12-215
%%score { 1 | 2 }
L:1/8
Q:1/4=132
M:4/4
K:C
V:1 treble nm="6."
V:2 bass 
V:1
"^Allegro"!p! (!1!EF/G/ !1!A/B/c/d/ e!2!B!4!c!2!A |"_cresc." G)(A/B/ !1!c/d/e/f/ g^fg!3!e | %2
 .!1!f).d'.!1!d.b .!1!B(gfd | [ce]8) |!p! (!1!EF/G/ !1!A/B/c/d/ e!2!B!4!c!2!A | %5
 G)(A/B/ !1!c/d/e/f/ g^fg!3!e | !1!f)d'!1!db (!1!Bgfd | %7
"_cresc." c)(d/e/ !1!f/g/a/b/!f! c'2) z2!fine! :|!f! z (!2!c'.e')(!2!a .c')(!1!e.a)(!1!c | [df]8) | %10
 z (!2!b.d')(!2!g .b)(!1!d.g)(!1!B | [ce]8) |!p! z (!1!E.!2!F)(E .!3!^F)(E.!3!^G)(E | %13
"_cresc." .!3!A)(E.!4!B)(E .!5!c)(E.A)(E | .^G)(!5!e.!2!B)(e .c)(e.A)e | %15
!f! z!>(! e2 e- e e2 e!>)!!D.C.! |] %16
V:2
 (!5!C,D,/E,/ F,/G,/!3!A,/B,/ C!3!^G,!2!A,!4!F, | (E,)F,/G,/ A,/B,/!3!C/D/ E^DEC | [G,D]8) | %3
 .!2!C.!1!E.!4!A,.!1!C .!4!G,.!1!C.E,.!1!C | (!5!C,D,/E,/ F,/G,/!3!A,/B,/ C!3!^G,!2!A,!4!F, | %5
 (E,)F,/G,/ A,/B,/!3!C/D/ E_E=EC | !1!!5![G,D]6) ([G,B,]2 | !1!C)(B,/A,/ !1!G,/F,/E,/D,/ C,2) z2 :| %8
 [A,C]8 | z (!2!D.!1!F)(!4!A, .!1!D)(!4!F,.!1!A,)(!5!D, | !1!!2![G,B,]8) | %11
 z (!2!C.!1!E)(!4!G, .!1!C)(!4!E,.G,)(!5!C, | E,4) z2 !1!D2 | !2!C2 !4!^G,2 !3!A,2 !1!C2 | %14
 !2!B,2 !4!^G,2 !3!A,2 !2!C2 | !1!E2 E2 E2 E2 |] %16

